Sources/FrostedUI/Resources/Icons.xcassets/mailOut20.imageset/mail-out-20.svg

<svg width="20" height="20" viewBox="0 0 20 20" fill="none" xmlns="http://www.w3.org/2000/svg" data-fui-icon="true">
  <path
    d="M14.9248 2.5C16.6231 2.5 18 3.87692 18 5.5752V8.25C18 8.66421 17.6642 9 17.25 9C16.8358 9 16.5 8.66421 16.5 8.25V7.38574L11.2246 10.8369C10.5632 11.2694 9.79026 11.5 9 11.5C8.20974 11.5 7.43678 11.2694 6.77539 10.8369L1.5 7.38574V13.9248C1.5 14.7947 2.20535 15.5 3.0752 15.5H13.75C14.1642 15.5 14.5 15.8358 14.5 16.25C14.5 16.6642 14.1642 17 13.75 17H3.0752C1.37692 17 0 15.6231 0 13.9248V5.5752C0 3.87692 1.37692 2.5 3.0752 2.5H14.9248ZM15.8896 10.1133C16.1723 9.81067 16.6465 9.79459 16.9492 10.0771L19.7617 12.7021C19.7654 12.7056 19.7688 12.7094 19.7725 12.7129C19.7782 12.7185 19.7835 12.7247 19.7891 12.7305C19.8182 12.7607 19.8447 12.7929 19.8682 12.8271C19.8708 12.831 19.8734 12.8349 19.876 12.8389C19.8989 12.8737 19.9188 12.9102 19.9355 12.9482C19.9393 12.9567 19.9429 12.9651 19.9463 12.9736C19.981 13.0608 20 13.1542 20 13.25C20 13.3455 19.9807 13.4385 19.9463 13.5254C19.9432 13.5332 19.9408 13.5412 19.9375 13.5488C19.9205 13.5877 19.8993 13.6245 19.876 13.6602C19.8734 13.6641 19.8708 13.668 19.8682 13.6719C19.8447 13.7062 19.8182 13.7383 19.7891 13.7686C19.7835 13.7744 19.7782 13.7805 19.7725 13.7861C19.7687 13.7898 19.7656 13.7942 19.7617 13.7979L16.9492 16.4229C16.6465 16.7054 16.1723 16.6893 15.8896 16.3867C15.6071 16.084 15.6232 15.6098 15.9258 15.3271L17.3467 14H12C11.5858 14 11.25 13.6642 11.25 13.25C11.25 12.8358 11.5858 12.5 12 12.5H17.3467L15.9258 11.1729C15.6232 10.8902 15.6071 10.416 15.8896 10.1133ZM3.0752 4C2.20535 4 1.5 4.70535 1.5 5.5752V5.59375L7.5957 9.58203C8.01307 9.85502 8.50128 10 9 10C9.49872 10 9.98693 9.85502 10.4043 9.58203L16.5 5.59375V5.5752C16.5 4.70535 15.7947 4 14.9248 4H3.0752Z"
    fill="currentColor"
  />
</svg>

<svg xmlns="http://www.w3.org/2000/svg" width="20" height="20" fill="none" data-fui-icon="true" viewBox="0 0 20 20"><path fill="currentColor" d="M14.925 2.5A3.075 3.075 0 0 1 18 5.575V8.25a.75.75 0 0 1-1.5 0v-.864l-5.275 3.45a4.07 4.07 0 0 1-4.45 0L1.5 7.387v6.539c0 .87.705 1.575 1.575 1.575H13.75a.75.75 0 0 1 0 1.5H3.075A3.075 3.075 0 0 1 0 13.925v-8.35A3.075 3.075 0 0 1 3.075 2.5zm.965 7.613a.75.75 0 0 1 1.06-.036l2.812 2.625.01.01.017.018q.044.045.08.097l.007.012a.74.74 0 0 1 .07.686l-.009.024a1 1 0 0 1-.061.111l-.008.012a1 1 0 0 1-.079.097l-.017.017-.01.012-2.813 2.625a.75.75 0 0 1-1.023-1.096L17.346 14H12a.75.75 0 0 1 0-1.5h5.347l-1.421-1.327a.75.75 0 0 1-.036-1.06M3.075 4C2.205 4 1.5 4.705 1.5 5.575v.019l6.096 3.988a2.57 2.57 0 0 0 2.808 0L16.5 5.594v-.019c0-.87-.705-1.575-1.575-1.575z"/></svg>
